!! 00000] TT[WS
!!!OTL: Zuo junxie
!!!ARE: Asia, China, Shanxi Linnan
!! Ethnic Group: Han
!! WII, 354 (1)
!!!SCT: J0781
!!!YEM: Copyright 1995, estate of Helmut Schaffrath.
**kern
*ICvox
*Ivox
*M2/4
*k[b-e-a-]
*E-:
{8b-
8cc
8ee-
8ff
=1
8dd
8cc
8b-
8g
=2
8b-
8ee-
8b-
8g
=3
2f}
=4
{8b-
8cc
8ee-
8ff
=5
8dd
8cc
8b-
8g
=6
8b-
8ee-
8b-
8g
=7
2f}
=8
{8f
8g
4b-
=9
4ee-
8cc
8b-
=10
8b-
8ee-
8b-
8g
=11
2e-}
=12
{8B-
4B-
8g
=13
8f
8g
4e-
=14
8g
4f
8c
=15
2B-}
==
!!!AGN: Xiaodiao. Laodong, Xinminge
!!!ONB: ESAC (Essen Associative Code) Database: CHINA
!!!AMT: simple duple
!!!AIN: vox
!!!EED: Helmut Schaffrath
!!!EEV: 1.0
*-
